; generated by PrusaSlicer 2.3.3 on 2021-07-28 at 20:58:27 UTC

; 

; external perimeters extrusion width = 0.45mm
; perimeters extrusion width = 0.45mm
; infill extrusion width = 0.45mm
; solid infill extrusion width = 0.45mm
; top infill extrusion width = 0.40mm
; first layer extrusion width = 0.42mm

M201 X500 Y500 Z100 E5000 ; sets maximum accelerations, mm/sec^2
M203 X500 Y500 Z10 E60 ; sets maximum feedrates, mm/sec
M204 P500 R1000 T500 ; sets acceleration (P, T) and retract acceleration (R), mm/sec^2
M205 X8.00 Y8.00 Z0.40 E5.00 ; sets the jerk limits, mm/sec
M205 S0 T0 ; sets the minimum extruding and travel feed rate, mm/sec
M107
;TYPE:Custom
G90 ; use absolute coordinates
M83 ; extruder relative mode
M140 S70 ; set bed temp
M104 S235 ; set extruder temp
M190 S70 ; wait for bed temp
M109 S235 ; wait for extruder temp
G28 ; home all
G29 ; Auto Bed Level
G1 Z2 F240
G1 X2 Y10 F3000
G1 Z0.28 F240
G92 E0.0
G1 Y190 E15.0 F1500.0 ; intro line
G1 X2.3 F5000
G1 Y10 E30 F1200.0 ; intro line
G92 E0.0
G21 ; set units to millimeters
G90 ; use absolute coordinates
M83 ; use relative distances for extrusion
; Filament gcode
;LAYER_CHANGE
;Z:0.2
;HEIGHT:0.2
;BEFORE_LAYER_CHANGE
;0.2


G1 E-6.50000 F1500.000
G1 Z0.200 F9000.000
;AFTER_LAYER_CHANGE
;0.2
G1 X22.169 Y22.851
G1 E6.50000 F1500.000
;TYPE:Skirt
;WIDTH:0.42
G1 F1200.000
G1 X22.942 Y22.150 E0.03273
G1 X23.712 Y21.620 E0.02932
G1 X24.654 Y21.144 E0.03307
G1 X25.556 Y20.834 E0.02992
G1 X37.941 Y18.674 E0.39420
G1 X197.004 Y18.673 E4.98729
G1 X208.923 Y20.712 E0.37916
G1 X209.815 Y20.946 E0.02890
G1 X210.670 Y21.288 E0.02888
G1 X211.470 Y21.732 E0.02870
G1 X212.298 Y22.347 E0.03233
G1 X212.965 Y22.995 E0.02916
G1 X213.536 Y23.708 E0.02864
G1 X214.018 Y24.495 E0.02894
G1 X214.436 Y25.436 E0.03229
G1 X214.698 Y26.330 E0.02920
G1 X214.844 Y27.249 E0.02918
G1 X214.877 Y193.980 E5.22774
G1 X214.735 Y195.390 E0.04443
G1 X214.316 Y196.770 E0.04520
G1 X213.638 Y198.042 E0.04520
G1 X212.748 Y199.135 E0.04417
G1 X211.606 Y200.078 E0.04646
G1 X210.328 Y200.763 E0.04545
G1 X208.941 Y201.185 E0.04546
G1 X207.500 Y201.327 E0.04541
G1 X27.473 Y201.327 E5.64461
G1 X26.079 Y201.189 E0.04392
G1 X24.811 Y200.819 E0.04143
G1 X23.547 Y200.178 E0.04445
G1 X22.399 Y199.279 E0.04571
G1 X21.385 Y198.076 E0.04933
G1 X20.695 Y196.798 E0.04555
G1 X20.267 Y195.399 E0.04587
G1 X20.123 Y193.957 E0.04545
G1 X20.123 Y27.921 E5.20594
G1 X20.264 Y26.515 E0.04428
G1 X20.675 Y25.151 E0.04468
G1 X21.283 Y23.979 E0.04141
G1 X22.132 Y22.898 E0.04306
G1 E-4.55000 F1500.000
;WIPE_START
G1 F7200.000
G1 X22.942 Y22.150 E-0.21829
G1 X23.712 Y21.620 E-0.18509
G1 X24.654 Y21.144 E-0.20877
G1 X25.556 Y20.834 E-0.18884
G1 X30.790 Y19.921 E-1.05151
;WIPE_END
G1 E-0.09750 F1500.000
G1 X77.001 Y94.466 F9000.000
G1 E6.50000 F1500.000
;TYPE:Perimeter
G1 F1200.000
G1 X77.457 Y94.145 E0.01750
G1 X77.943 Y93.870 E0.01750
G1 X78.453 Y93.643 E0.01750
G1 X78.983 Y93.468 E0.01750
G1 X79.528 Y93.346 E0.01750
G1 X80.078 Y93.278 E0.01739
G1 X80.489 Y93.263 E0.01288
G1 X150.511 Y93.263 E2.19552
G1 X150.922 Y93.278 E0.01289
G1 X151.473 Y93.346 E0.01739
G1 X152.014 Y93.467 E0.01740
G1 X152.416 Y93.595 E0.01321
G1 X152.804 Y93.750 E0.01312
G1 X153.181 Y93.934 E0.01314
G1 X153.543 Y94.145 E0.01312
G1 X153.889 Y94.382 E0.01315
G1 X154.215 Y94.643 E0.01312
G1 X154.527 Y94.933 E0.01336
G1 X154.985 Y95.450 E0.02164
G1 X155.375 Y96.020 E0.02166
G1 X155.580 Y96.393 E0.01335
G1 X155.757 Y96.780 E0.01333
G1 X155.980 Y97.426 E0.02142
G1 X156.078 Y97.841 E0.01338
G1 X156.145 Y98.261 E0.01333
G1 X156.187 Y98.931 E0.02104
G1 X156.187 Y118.965 E0.62816
G1 X156.161 Y119.504 E0.01692
G1 X156.103 Y119.926 E0.01335
G1 X155.983 Y120.463 E0.01725
G1 X155.855 Y120.866 E0.01326
G1 X155.700 Y121.254 E0.01311
G1 X155.516 Y121.631 E0.01315
G1 X155.304 Y121.994 E0.01316
G1 X155.068 Y122.337 E0.01307
G1 X154.807 Y122.664 E0.01312
G1 X154.522 Y122.972 E0.01315
G1 X154.215 Y123.257 E0.01314
G1 X153.888 Y123.518 E0.01311
G1 X153.543 Y123.755 E0.01312
G1 X153.181 Y123.966 E0.01314
G1 X152.804 Y124.150 E0.01315
G1 X152.416 Y124.305 E0.01311
G1 X152.017 Y124.432 E0.01312
G1 X151.608 Y124.528 E0.01318
G1 X151.196 Y124.594 E0.01309
G1 X150.775 Y124.631 E0.01324
G1 X80.485 Y124.637 E2.20391
G1 X79.946 Y124.611 E0.01692
G1 X79.524 Y124.553 E0.01335
G1 X78.987 Y124.433 E0.01725
G1 X78.584 Y124.305 E0.01326
G1 X78.195 Y124.150 E0.01312
G1 X77.812 Y123.963 E0.01335
G1 X77.225 Y123.601 E0.02165
G1 X76.686 Y123.169 E0.02164
G1 X76.381 Y122.872 E0.01336
G1 X76.103 Y122.558 E0.01314
G1 X75.850 Y122.225 E0.01311
G1 X75.622 Y121.874 E0.01313
G1 X75.420 Y121.507 E0.01314
G1 X75.245 Y121.127 E0.01312
G1 X75.100 Y120.734 E0.01313
G1 X74.981 Y120.325 E0.01335
G1 X74.855 Y119.646 E0.02165
G1 X74.813 Y118.969 E0.02129
G1 X74.819 Y98.671 E0.63642
G1 X74.874 Y98.115 E0.01750
G1 X74.983 Y97.568 E0.01750
G1 X75.145 Y97.034 E0.01750
G1 X75.358 Y96.518 E0.01750
G1 X75.621 Y96.026 E0.01750
G1 X75.932 Y95.562 E0.01750
G1 X76.283 Y95.133 E0.01739
G1 X76.581 Y94.828 E0.01335
G1 X76.955 Y94.505 E0.01551
G1 X77.202 Y94.791 F9000.000
;TYPE:External perimeter
G1 F1200.000
G1 X77.659 Y94.464 E0.01764
G1 X78.112 Y94.207 E0.01634
G1 X78.589 Y93.996 E0.01634
G1 X79.084 Y93.832 E0.01634
G1 X79.592 Y93.718 E0.01634
G1 X80.108 Y93.654 E0.01630
G1 X80.496 Y93.640 E0.01216
G1 X150.504 Y93.640 E2.19508
G1 X150.892 Y93.654 E0.01216
G1 X151.408 Y93.718 E0.01630
G1 X151.916 Y93.832 E0.01631
G1 X152.289 Y93.950 E0.01227
G1 X152.652 Y94.095 E0.01226
G1 X153.003 Y94.267 E0.01227
G1 X153.341 Y94.464 E0.01225
G1 X153.664 Y94.685 E0.01227
G1 X153.969 Y94.929 E0.01225
G1 X154.257 Y95.197 E0.01235
G1 X154.687 Y95.683 E0.02033
G1 X155.054 Y96.218 E0.02035
G1 X155.243 Y96.563 E0.01233
G1 X155.407 Y96.920 E0.01232
G1 X155.617 Y97.531 E0.02027
G1 X155.708 Y97.915 E0.01235
G1 X155.770 Y98.303 E0.01232
G1 X155.810 Y98.943 E0.02011
G1 X155.810 Y118.956 E0.62750
G1 X155.785 Y119.469 E0.01612
G1 X155.731 Y119.859 E0.01234
G1 X155.618 Y120.365 E0.01625
G1 X155.500 Y120.739 E0.01231
G1 X155.355 Y121.101 E0.01224
G1 X155.183 Y121.453 E0.01227
G1 X154.986 Y121.791 E0.01228
G1 X154.765 Y122.113 E0.01222
G1 X154.521 Y122.418 E0.01226
G1 X154.255 Y122.705 E0.01227
G1 X153.968 Y122.971 E0.01226
G1 X153.664 Y123.215 E0.01224
G1 X153.341 Y123.436 E0.01225
G1 X153.003 Y123.633 E0.01227
G1 X152.651 Y123.805 E0.01227
G1 X152.289 Y123.950 E0.01225
G1 X151.917 Y124.068 E0.01224
G1 X151.535 Y124.158 E0.01230
G1 X151.150 Y124.220 E0.01223
G1 X150.759 Y124.254 E0.01230
G1 X80.494 Y124.260 E2.20311
G1 X79.981 Y124.235 E0.01612
G1 X79.591 Y124.181 E0.01234
G1 X79.085 Y124.068 E0.01625
G1 X78.711 Y123.950 E0.01231
G1 X78.348 Y123.805 E0.01225
G1 X77.994 Y123.632 E0.01234
G1 X77.442 Y123.292 E0.02034
G1 X76.936 Y122.887 E0.02034
G1 X76.654 Y122.612 E0.01234
G1 X76.395 Y122.319 E0.01227
G1 X76.159 Y122.008 E0.01225
G1 X75.945 Y121.680 E0.01225
G1 X75.757 Y121.337 E0.01227
G1 X75.594 Y120.982 E0.01225
G1 X75.458 Y120.616 E0.01226
G1 X75.348 Y120.238 E0.01234
G1 X75.230 Y119.600 E0.02034
G1 X75.190 Y118.957 E0.02020
G1 X75.196 Y98.689 E0.63548
G1 X75.247 Y98.171 E0.01634
G1 X75.349 Y97.660 E0.01634
G1 X75.500 Y97.161 E0.01634
G1 X75.700 Y96.680 E0.01634
G1 X75.945 Y96.220 E0.01634
G1 X76.235 Y95.787 E0.01634
G1 X76.565 Y95.385 E0.01630
G1 X76.839 Y95.103 E0.01234
G1 X77.156 Y94.830 E0.01312
G1 X77.146 Y94.395 F9000.000
G1 E-4.55000 F1500.000
;WIPE_START
G1 F7200.000
G1 X77.659 Y94.464 E-0.12315
G1 X78.112 Y94.207 E-0.10313
G1 X78.589 Y93.996 E-0.10315
G1 X79.084 Y93.832 E-0.10313
G1 X79.592 Y93.718 E-0.10315
G1 X80.108 Y93.654 E-0.10289
G1 X80.496 Y93.640 E-0.07674
G1 X86.241 Y93.640 E-1.13717
;WIPE_END
G1 E-0.09750 F1500.000
G1 X28.582 Y29.487 F9000.000
G1 E6.50000 F1500.000
;TYPE:Perimeter
G1 F1200.000
G1 X28.262 Y29.669 E0.01156
G1 X27.912 Y29.784 E0.01156
G1 X27.546 Y29.829 E0.01155
G1 X27.179 Y29.802 E0.01156
G1 X26.823 Y29.704 E0.01155
G1 X26.494 Y29.538 E0.01156
G1 X26.204 Y29.312 E0.01155
G1 X25.963 Y29.032 E0.01156
G1 X25.781 Y28.712 E0.01156
G1 X25.666 Y28.362 E0.01155
G1 X25.621 Y27.996 E0.01155
G1 X25.648 Y27.629 E0.01155
G1 X25.746 Y27.273 E0.01155
G1 X25.912 Y26.944 E0.01156
G1 X26.138 Y26.654 E0.01155
G1 X26.418 Y26.413 E0.01155
G1 X26.738 Y26.231 E0.01156
G1 X27.090 Y26.115 E0.01161
G1 X27.472 Y26.070 E0.01207
G1 X27.823 Y26.098 E0.01103
G1 X28.177 Y26.196 E0.01150
G1 X28.506 Y26.362 E0.01156
G1 X28.796 Y26.588 E0.01155
G1 X29.037 Y26.868 E0.01156
G1 X29.219 Y27.188 E0.01156
G1 X29.334 Y27.538 E0.01155
G1 X29.379 Y27.904 E0.01155
G1 X29.352 Y28.271 E0.01155
G1 X29.254 Y28.627 E0.01156
G1 X29.088 Y28.956 E0.01156
G1 X28.862 Y29.246 E0.01155
G1 X28.628 Y29.448 E0.00967
G1 X28.382 Y29.162 F9000.000
;TYPE:External perimeter
G1 F1200.000
G1 X28.108 Y29.322 E0.00993
G1 X27.829 Y29.415 E0.00923
G1 X27.537 Y29.451 E0.00923
G1 X27.243 Y29.429 E0.00923
G1 X26.960 Y29.350 E0.00923
G1 X26.697 Y29.218 E0.00923
G1 X26.465 Y29.037 E0.00923
G1 X26.273 Y28.814 E0.00923
G1 X26.128 Y28.558 E0.00923
G1 X26.035 Y28.279 E0.00923
G1 X25.999 Y27.987 E0.00923
G1 X26.021 Y27.693 E0.00923
G1 X26.100 Y27.410 E0.00923
G1 X26.232 Y27.147 E0.00923
G1 X26.413 Y26.915 E0.00923
G1 X26.636 Y26.723 E0.00923
G1 X26.892 Y26.578 E0.00923
G1 X27.172 Y26.485 E0.00925
G1 X27.479 Y26.449 E0.00971
G1 X27.757 Y26.471 E0.00874
G1 X28.040 Y26.550 E0.00921
G1 X28.303 Y26.682 E0.00923
G1 X28.535 Y26.863 E0.00923
G1 X28.727 Y27.086 E0.00923
G1 X28.872 Y27.342 E0.00923
G1 X28.965 Y27.621 E0.00923
G1 X29.001 Y27.913 E0.00923
G1 X28.979 Y28.207 E0.00923
G1 X28.900 Y28.490 E0.00923
G1 X28.768 Y28.753 E0.00923
G1 X28.587 Y28.985 E0.00923
G1 X28.427 Y29.123 E0.00663
G1 X28.413 Y29.477 F9000.000
G1 E-4.55000 F1500.000
;WIPE_START
G1 F7200.000
G1 X28.108 Y29.322 E-0.07439
G1 X27.829 Y29.415 E-0.05824
G1 X27.537 Y29.451 E-0.05824
G1 X27.243 Y29.429 E-0.05824
G1 X26.960 Y29.350 E-0.05823
G1 X26.697 Y29.218 E-0.05824
G1 X26.465 Y29.037 E-0.05823
G1 X26.273 Y28.814 E-0.05824
G1 X26.128 Y28.558 E-0.05824
G1 X26.035 Y28.279 E-0.05824
G1 X25.999 Y27.987 E-0.05824
G1 X26.021 Y27.693 E-0.05824
G1 X26.100 Y27.410 E-0.05824
G1 X26.232 Y27.147 E-0.05824
G1 X26.413 Y26.915 E-0.05824
G1 X26.636 Y26.723 E-0.05824
G1 X26.892 Y26.578 E-0.05824
G1 X27.172 Y26.485 E-0.05837
G1 X27.479 Y26.449 E-0.06129
G1 X27.757 Y26.471 E-0.05516
G1 X28.040 Y26.550 E-0.05812
G1 X28.303 Y26.682 E-0.05824
G1 X28.535 Y26.863 E-0.05824
G1 X28.727 Y27.086 E-0.05824
G1 X28.872 Y27.342 E-0.05824
G1 X28.965 Y27.621 E-0.05824
G1 X29.001 Y27.913 E-0.05824
G1 X28.979 Y28.207 E-0.05824
G1 X28.900 Y28.490 E-0.05824
G1 X28.768 Y28.753 E-0.05824
G1 X28.587 Y28.985 E-0.05823
G1 X28.469 Y29.087 E-0.03099
;WIPE_END
G1 E-0.09750 F1500.000
G1 X27.445 Y192.071 F9000.000
G1 E6.50000 F1500.000
;TYPE:Perimeter
G1 F1200.000
G1 X27.780 Y192.091 E0.01054
G1 X28.151 Y192.186 E0.01201
G1 X28.470 Y192.339 E0.01108
G1 X28.787 Y192.579 E0.01248
G1 X29.037 Y192.867 E0.01194
G1 X29.223 Y193.197 E0.01188
G1 X29.334 Y193.540 E0.01130
G1 X29.379 Y193.904 E0.01151
G1 X29.352 Y194.271 E0.01155
G1 X29.253 Y194.629 E0.01164
G1 X29.074 Y194.978 E0.01229
G1 X28.856 Y195.253 E0.01101
G1 X28.550 Y195.510 E0.01254
G1 X28.259 Y195.669 E0.01040
G1 X27.940 Y195.778 E0.01058
G1 X27.555 Y195.829 E0.01216
G1 X27.220 Y195.809 E0.01054
G1 X26.849 Y195.714 E0.01201
G1 X26.530 Y195.561 E0.01109
G1 X26.213 Y195.321 E0.01248
G1 X25.963 Y195.033 E0.01194
G1 X25.777 Y194.703 E0.01188
G1 X25.666 Y194.360 E0.01130
G1 X25.621 Y193.996 E0.01150
G1 X25.648 Y193.629 E0.01155
G1 X25.747 Y193.271 E0.01164
G1 X25.926 Y192.922 E0.01229
G1 X26.144 Y192.647 E0.01101
G1 X26.450 Y192.390 E0.01254
G1 X26.741 Y192.231 E0.01040
G1 X27.060 Y192.122 E0.01058
G1 X27.385 Y192.079 E0.01028
G1 X27.435 Y192.452 F9000.000
;TYPE:External perimeter
G1 F1200.000
G1 X27.721 Y192.465 E0.00898
G1 X28.021 Y192.542 E0.00972
G1 X28.273 Y192.663 E0.00874
G1 X28.528 Y192.856 E0.01005
G1 X28.727 Y193.085 E0.00951
G1 X28.876 Y193.350 E0.00951
G1 X28.965 Y193.622 E0.00898
G1 X29.001 Y193.913 E0.00920
G1 X28.979 Y194.206 E0.00922
G1 X28.900 Y194.491 E0.00926
G1 X28.756 Y194.772 E0.00991
G1 X28.584 Y194.989 E0.00866
G1 X28.336 Y195.197 E0.01017
G1 X28.107 Y195.323 E0.00819
G1 X27.853 Y195.409 E0.00840
G1 X27.542 Y195.451 E0.00985
G1 X27.279 Y195.435 E0.00826
G1 X26.979 Y195.358 E0.00972
G1 X26.727 Y195.237 E0.00874
G1 X26.472 Y195.044 E0.01005
G1 X26.273 Y194.815 E0.00951
G1 X26.124 Y194.550 E0.00951
G1 X26.035 Y194.278 E0.00898
G1 X25.999 Y193.987 E0.00920
G1 X26.021 Y193.694 E0.00922
G1 X26.100 Y193.409 E0.00927
G1 X26.244 Y193.128 E0.00991
G1 X26.416 Y192.911 E0.00866
G1 X26.664 Y192.703 E0.01017
G1 X26.893 Y192.577 E0.00819
G1 X27.147 Y192.491 E0.00840
G1 X27.376 Y192.460 E0.00724
G1 X27.567 Y192.198 F9000.000
G1 E-4.55000 F1500.000
;WIPE_START
G1 F7200.000
G1 X27.721 Y192.465 E-0.06840
G1 X28.021 Y192.542 E-0.06133
G1 X28.273 Y192.663 E-0.05514
G1 X28.528 Y192.856 E-0.06343
G1 X28.727 Y193.085 E-0.06002
G1 X28.876 Y193.350 E-0.06006
G1 X28.965 Y193.622 E-0.05670
G1 X29.001 Y193.913 E-0.05807
G1 X28.979 Y194.206 E-0.05819
G1 X28.900 Y194.491 E-0.05848
G1 X28.756 Y194.772 E-0.06253
G1 X28.584 Y194.989 E-0.05468
G1 X28.336 Y195.197 E-0.06418
G1 X28.107 Y195.323 E-0.05171
G1 X27.853 Y195.409 E-0.05304
G1 X27.542 Y195.451 E-0.06220
G1 X27.279 Y195.435 E-0.05212
G1 X26.979 Y195.358 E-0.06133
G1 X26.727 Y195.237 E-0.05514
G1 X26.472 Y195.044 E-0.06342
G1 X26.273 Y194.815 E-0.06002
G1 X26.124 Y194.550 E-0.06005
G1 X26.035 Y194.278 E-0.05670
G1 X25.999 Y193.987 E-0.05807
G1 X26.021 Y193.694 E-0.05819
G1 X26.100 Y193.409 E-0.05848
G1 X26.244 Y193.128 E-0.06253
G1 X26.416 Y192.911 E-0.05468
G1 X26.664 Y192.703 E-0.06418
G1 X26.893 Y192.577 E-0.05171
G1 X27.147 Y192.491 E-0.05304
G1 X27.321 Y192.468 E-0.03466
;WIPE_END
G1 E-0.09750 F1500.000
G1 X205.621 Y194.005 F9000.000
G1 E6.50000 F1500.000
;TYPE:Perimeter
G1 F1200.000
G1 X205.641 Y193.669 E0.01056
G1 X205.736 Y193.298 E0.01200
G1 X205.888 Y192.981 E0.01105
G1 X206.131 Y192.661 E0.01258
G1 X206.446 Y192.392 E0.01300
G1 X206.739 Y192.232 E0.01046
G1 X207.061 Y192.122 E0.01067
G1 X207.445 Y192.071 E0.01215
G1 X207.781 Y192.091 E0.01056
G1 X208.152 Y192.186 E0.01200
G1 X208.469 Y192.338 E0.01104
G1 X208.789 Y192.581 E0.01258
G1 X209.058 Y192.896 E0.01300
G1 X209.218 Y193.189 E0.01046
G1 X209.328 Y193.511 E0.01067
G1 X209.379 Y193.895 E0.01215
G1 X209.359 Y194.231 E0.01056
G1 X209.264 Y194.602 E0.01200
G1 X209.112 Y194.919 E0.01104
G1 X208.869 Y195.239 E0.01258
G1 X208.554 Y195.508 E0.01300
G1 X208.261 Y195.668 E0.01046
G1 X207.939 Y195.778 E0.01067
G1 X207.555 Y195.829 E0.01215
G1 X207.219 Y195.809 E0.01056
G1 X206.849 Y195.714 E0.01200
G1 X206.531 Y195.562 E0.01105
G1 X206.211 Y195.319 E0.01258
G1 X205.942 Y195.004 E0.01300
G1 X205.782 Y194.711 E0.01046
G1 X205.672 Y194.389 E0.01067
G1 X205.629 Y194.065 E0.01027
G1 X206.002 Y194.015 F9000.000
;TYPE:External perimeter
G1 F1200.000
G1 X206.015 Y193.728 E0.00899
G1 X206.092 Y193.428 E0.00971
G1 X206.212 Y193.178 E0.00870
G1 X206.406 Y192.921 E0.01010
G1 X206.661 Y192.704 E0.01049
G1 X206.891 Y192.578 E0.00823
G1 X207.147 Y192.491 E0.00849
G1 X207.459 Y192.449 E0.00984
G1 X207.722 Y192.465 E0.00827
G1 X208.022 Y192.542 E0.00971
G1 X208.272 Y192.662 E0.00870
G1 X208.529 Y192.856 E0.01010
G1 X208.746 Y193.111 E0.01049
G1 X208.872 Y193.341 E0.00823
G1 X208.959 Y193.597 E0.00849
G1 X209.001 Y193.909 E0.00984
G1 X208.985 Y194.172 E0.00827
G1 X208.908 Y194.472 E0.00971
G1 X208.788 Y194.722 E0.00870
G1 X208.594 Y194.979 E0.01010
G1 X208.339 Y195.196 E0.01049
G1 X208.109 Y195.322 E0.00823
G1 X207.853 Y195.409 E0.00849
G1 X207.541 Y195.451 E0.00984
G1 X207.278 Y195.435 E0.00827
G1 X206.978 Y195.358 E0.00971
G1 X206.728 Y195.238 E0.00870
G1 X206.471 Y195.044 E0.01010
G1 X206.254 Y194.789 E0.01049
G1 X206.128 Y194.559 E0.00823
G1 X206.041 Y194.303 E0.00849
G1 X206.010 Y194.074 E0.00723
G1 X205.747 Y193.883 F9000.000
G1 E-4.55000 F1500.000
;WIPE_START
G1 F7200.000
G1 X206.015 Y193.728 E-0.06849
G1 X206.092 Y193.428 E-0.06130
G1 X206.212 Y193.178 E-0.05490
G1 X206.406 Y192.921 E-0.06373
G1 X206.661 Y192.704 E-0.06621
