; generated by PrusaSlicer 2.3.3 on 2021-08-01 at 11:55:12 UTC

; 

; external perimeters extrusion width = 0.45mm
; perimeters extrusion width = 0.45mm
; infill extrusion width = 0.45mm
; solid infill extrusion width = 0.45mm
; top infill extrusion width = 0.40mm
; first layer extrusion width = 0.42mm

M201 X500 Y500 Z100 E5000 ; sets maximum accelerations, mm/sec^2
M203 X500 Y500 Z10 E60 ; sets maximum feedrates, mm/sec
M204 P500 R1000 T500 ; sets acceleration (P, T) and retract acceleration (R), mm/sec^2
M205 X8.00 Y8.00 Z0.40 E5.00 ; sets the jerk limits, mm/sec
M205 S0 T0 ; sets the minimum extruding and travel feed rate, mm/sec
M107
;TYPE:Custom
G90 ; use absolute coordinates
M83 ; extruder relative mode
M140 S60 ; set bed temp
M104 S210 ; set extruder temp
M190 S60 ; wait for bed temp
M109 S210 ; wait for extruder temp
G28 ; home all
G29 ; Auto Bed Level
G1 Z2 F240
G1 X2 Y10 F3000
G1 Z0.28 F240
G92 E0.0
G1 Y190 E15.0 F1500.0 ; intro line
G1 X2.3 F5000
G1 Y10 E30 F1200.0 ; intro line
G92 E0.0
G21 ; set units to millimeters
G90 ; use absolute coordinates
M83 ; use relative distances for extrusion
; Filament gcode
;LAYER_CHANGE
;Z:0.2
;HEIGHT:0.2
;BEFORE_LAYER_CHANGE
;0.2


G1 E-6.50000 F1500.000
G1 Z0.200 F7200.000
;AFTER_LAYER_CHANGE
;0.2
G1 X20.175 Y25.151
G1 E6.50000 F1500.000
;TYPE:Skirt
;WIDTH:0.42
G1 F1200.000
G1 X20.847 Y23.881 E0.04505
G1 X21.670 Y22.850 E0.04135
G1 X22.459 Y22.136 E0.03339
G1 X23.338 Y21.546 E0.03319
G1 X24.199 Y21.125 E0.03004
G1 X25.198 Y20.797 E0.03296
G1 X38.042 Y18.674 E0.40820
G1 X196.904 Y18.673 E4.98099
G1 X209.283 Y20.685 E0.39325
G1 X210.286 Y20.936 E0.03240
G1 X211.139 Y21.274 E0.02876
G1 X211.949 Y21.719 E0.02897
G1 X212.700 Y22.264 E0.02910
G1 X213.450 Y22.978 E0.03247
G1 X214.031 Y23.702 E0.02912
G1 X214.518 Y24.495 E0.02918
G1 X214.936 Y25.436 E0.03229
G1 X215.197 Y26.327 E0.02908
G1 X215.343 Y27.242 E0.02906
G1 X215.377 Y193.980 E5.22798
G1 X215.235 Y195.389 E0.04439
G1 X214.816 Y196.770 E0.04525
G1 X214.138 Y198.042 E0.04520
G1 X213.246 Y199.137 E0.04429
G1 X212.103 Y200.080 E0.04646
G1 X210.828 Y200.763 E0.04533
G1 X209.441 Y201.185 E0.04546
G1 X208.000 Y201.327 E0.04541
G1 X26.973 Y201.327 E5.67596
G1 X25.557 Y201.185 E0.04463
G1 X24.179 Y200.766 E0.04515
G1 X22.909 Y200.088 E0.04515
G1 X21.808 Y199.191 E0.04451
G1 X20.872 Y198.057 E0.04611
G1 X20.189 Y196.782 E0.04536
G1 X19.766 Y195.394 E0.04552
G1 X19.623 Y193.954 E0.04536
G1 X19.623 Y27.921 E5.20586
G1 X19.764 Y26.515 E0.04428
G1 X20.157 Y25.208 E0.04280
G1 E-4.55000 F1500.000
;WIPE_START
G1 F5760.000
G1 X20.847 Y23.881 E-0.37005
G1 X21.670 Y22.850 E-0.32628
G1 X22.459 Y22.136 E-0.26346
G1 X23.338 Y21.546 E-0.26189
G1 X24.199 Y21.125 E-0.23702
G1 X25.198 Y20.797 E-0.26003
G1 X25.731 Y20.708 E-0.13376
;WIPE_END
G1 E-0.09750 F1500.000
G1 X105.509 Y71.438 F7200.000
G1 E6.50000 F1500.000
;TYPE:Perimeter
G1 F1200.000
G1 X105.779 Y70.961 E0.01719
G1 X106.093 Y70.515 E0.01708
G1 X106.362 Y70.195 E0.01312
G1 X106.745 Y69.812 E0.01697
G1 X107.065 Y69.543 E0.01312
G1 X107.511 Y69.229 E0.01708
G1 X107.988 Y68.959 E0.01719
G1 X108.489 Y68.737 E0.01719
G1 X109.010 Y68.565 E0.01719
G1 X109.545 Y68.444 E0.01719
G1 X110.085 Y68.378 E0.01708
G1 X110.489 Y68.363 E0.01267
G1 X120.648 Y68.364 E0.31853
G1 X121.320 Y68.422 E0.02115
G1 X121.984 Y68.563 E0.02127
G1 X122.382 Y68.689 E0.01310
G1 X122.771 Y68.845 E0.01312
G1 X123.367 Y69.154 E0.02106
G1 X123.717 Y69.382 E0.01311
G1 X124.045 Y69.631 E0.01289
G1 X124.353 Y69.903 E0.01291
G1 X124.640 Y70.198 E0.01290
G1 X124.905 Y70.513 E0.01291
G1 X125.146 Y70.846 E0.01289
G1 X125.361 Y71.196 E0.01287
G1 X125.551 Y71.561 E0.01290
G1 X125.713 Y71.939 E0.01290
G1 X125.847 Y72.328 E0.01290
G1 X125.952 Y72.726 E0.01291
G1 X126.027 Y73.131 E0.01291
G1 X126.072 Y73.539 E0.01288
G1 X126.087 Y73.939 E0.01254
G1 X126.081 Y144.224 E2.20373
G1 X126.028 Y144.766 E0.01709
G1 X125.952 Y145.178 E0.01314
G1 X125.807 Y145.700 E0.01697
G1 X125.660 Y146.091 E0.01311
G1 X125.430 Y146.581 E0.01697
G1 X125.218 Y146.943 E0.01314
G1 X124.908 Y147.384 E0.01693
G1 X124.638 Y147.705 E0.01314
G1 X124.255 Y148.088 E0.01698
G1 X123.937 Y148.355 E0.01303
G1 X123.602 Y148.598 E0.01297
G1 X123.137 Y148.877 E0.01699
G1 X122.761 Y149.060 E0.01313
G1 X122.253 Y149.256 E0.01707
G1 X121.728 Y149.402 E0.01707
G1 X121.319 Y149.477 E0.01303
G1 X120.911 Y149.522 E0.01288
G1 X120.511 Y149.537 E0.01255
G1 X110.489 Y149.537 E0.31424
G1 X110.089 Y149.522 E0.01254
G1 X109.673 Y149.476 E0.01311
G1 X109.017 Y149.337 E0.02105
G1 X108.618 Y149.211 E0.01313
G1 X108.236 Y149.058 E0.01289
G1 X107.866 Y148.878 E0.01290
G1 X107.510 Y148.670 E0.01291
G1 X107.172 Y148.438 E0.01288
G1 X106.851 Y148.181 E0.01289
G1 X106.549 Y147.901 E0.01289
G1 X106.269 Y147.599 E0.01292
G1 X106.012 Y147.278 E0.01290
G1 X105.779 Y146.940 E0.01288
G1 X105.572 Y146.584 E0.01291
G1 X105.392 Y146.214 E0.01290
G1 X105.239 Y145.832 E0.01289
G1 X105.115 Y145.441 E0.01288
G1 X105.020 Y145.039 E0.01293
G1 X104.953 Y144.627 E0.01310
G1 X104.913 Y143.968 E0.02070
G1 X104.913 Y73.939 E2.19570
G1 X104.928 Y73.535 E0.01267
G1 X104.994 Y72.995 E0.01708
G1 X105.115 Y72.460 E0.01719
G1 X105.287 Y71.939 E0.01719
G1 X105.485 Y71.492 E0.01531
G1 X105.829 Y71.645 F7200.000
;TYPE:External perimeter
G1 F1200.000
G1 X106.098 Y71.163 E0.01733
G1 X106.392 Y70.746 E0.01599
G1 X106.640 Y70.450 E0.01210
G1 X107.000 Y70.090 E0.01595
G1 X107.296 Y69.842 E0.01210
G1 X107.713 Y69.548 E0.01599
G1 X108.157 Y69.296 E0.01603
G1 X108.625 Y69.089 E0.01603
G1 X109.110 Y68.928 E0.01603
G1 X109.609 Y68.816 E0.01603
G1 X110.115 Y68.754 E0.01599
G1 X110.496 Y68.740 E0.01194
G1 X120.632 Y68.742 E0.31780
G1 X121.265 Y68.796 E0.01992
G1 X121.888 Y68.928 E0.01996
G1 X122.255 Y69.044 E0.01208
G1 X122.613 Y69.188 E0.01211
G1 X123.177 Y69.480 E0.01990
G1 X123.500 Y69.690 E0.01209
G1 X123.805 Y69.922 E0.01202
G1 X124.093 Y70.177 E0.01203
G1 X124.361 Y70.451 E0.01202
G1 X124.608 Y70.745 E0.01203
G1 X124.832 Y71.055 E0.01202
G1 X125.033 Y71.382 E0.01202
G1 X125.210 Y71.722 E0.01203
G1 X125.361 Y72.075 E0.01203
G1 X125.486 Y72.437 E0.01203
G1 X125.584 Y72.809 E0.01203
G1 X125.654 Y73.186 E0.01203
G1 X125.696 Y73.567 E0.01202
G1 X125.710 Y73.946 E0.01190
G1 X125.704 Y144.205 E2.20293
G1 X125.654 Y144.713 E0.01601
G1 X125.584 Y145.093 E0.01211
G1 X125.448 Y145.583 E0.01593
G1 X125.313 Y145.945 E0.01211
G1 X125.096 Y146.405 E0.01595
G1 X124.901 Y146.739 E0.01212
G1 X124.609 Y147.154 E0.01593
G1 X124.360 Y147.450 E0.01212
G1 X124.000 Y147.810 E0.01596
G1 X123.705 Y148.058 E0.01208
G1 X123.394 Y148.282 E0.01204
G1 X122.957 Y148.545 E0.01597
G1 X122.610 Y148.714 E0.01211
G1 X122.134 Y148.898 E0.01599
G1 X121.643 Y149.034 E0.01597
G1 X121.265 Y149.104 E0.01208
G1 X120.883 Y149.146 E0.01202
G1 X120.504 Y149.160 E0.01191
G1 X110.496 Y149.160 E0.31379
G1 X110.117 Y149.146 E0.01190
G1 X109.733 Y149.104 E0.01210
G1 X109.113 Y148.972 E0.01988
G1 X108.745 Y148.856 E0.01211
G1 X108.389 Y148.713 E0.01203
G1 X108.044 Y148.545 E0.01202
G1 X107.712 Y148.351 E0.01204
G1 X107.396 Y148.135 E0.01202
G1 X107.097 Y147.895 E0.01203
G1 X106.816 Y147.635 E0.01202
G1 X106.555 Y147.353 E0.01204
G1 X106.315 Y147.053 E0.01204
G1 X106.098 Y146.738 E0.01201
G1 X105.905 Y146.406 E0.01203
G1 X105.737 Y146.061 E0.01203
G1 X105.594 Y145.705 E0.01203
G1 X105.479 Y145.340 E0.01200
G1 X105.390 Y144.966 E0.01205
G1 X105.329 Y144.585 E0.01209
G1 X105.290 Y143.956 E0.01975
G1 X105.290 Y73.946 E2.19512
G1 X105.304 Y73.565 E0.01194
G1 X105.366 Y73.059 E0.01599
G1 X105.478 Y72.560 E0.01603
G1 X105.639 Y72.075 E0.01603
G1 X105.805 Y71.700 E0.01285
G1 X105.608 Y71.312 F7200.000
G1 E-4.55000 F1500.000
;WIPE_START
G1 F5760.000
G1 X106.098 Y71.163 E-0.15149
G1 X106.392 Y70.746 E-0.12619
G1 X106.640 Y70.450 E-0.09551
G1 X107.000 Y70.090 E-0.12588
G1 X107.296 Y69.842 E-0.09550
G1 X107.713 Y69.548 E-0.12619
G1 X108.157 Y69.296 E-0.12648
G1 X108.625 Y69.089 E-0.12650
G1 X109.110 Y68.928 E-0.12649
G1 X109.609 Y68.816 E-0.12651
G1 X110.115 Y68.754 E-0.12618
G1 X110.496 Y68.740 E-0.09425
G1 X112.135 Y68.740 E-0.40532
;WIPE_END
G1 E-0.09750 F1500.000
G1 X29.253 Y29.455 F7200.000
G1 E6.50000 F1500.000
;TYPE:Perimeter
G1 F1200.000
G1 X28.916 Y29.866 E0.01665
G1 X28.505 Y30.203 E0.01665
G1 X28.037 Y30.453 E0.01665
G1 X27.529 Y30.607 E0.01665
G1 X27.000 Y30.659 E0.01665
G1 X26.471 Y30.607 E0.01665
G1 X25.963 Y30.453 E0.01665
G1 X25.495 Y30.203 E0.01665
G1 X25.084 Y29.866 E0.01665
G1 X24.747 Y29.455 E0.01665
G1 X24.497 Y28.987 E0.01665
G1 X24.343 Y28.479 E0.01665
G1 X24.291 Y27.950 E0.01665
G1 X24.343 Y27.421 E0.01665
G1 X24.497 Y26.913 E0.01665
G1 X24.747 Y26.445 E0.01665
G1 X25.084 Y26.034 E0.01665
G1 X25.495 Y25.697 E0.01665
G1 X25.963 Y25.447 E0.01665
G1 X26.471 Y25.293 E0.01664
G1 X26.994 Y25.241 E0.01648
G1 X27.528 Y25.293 E0.01682
G1 X28.037 Y25.447 E0.01666
G1 X28.505 Y25.697 E0.01665
G1 X28.916 Y26.034 E0.01665
G1 X29.253 Y26.445 E0.01665
G1 X29.503 Y26.913 E0.01665
G1 X29.657 Y27.421 E0.01665
G1 X29.709 Y27.950 E0.01665
G1 X29.657 Y28.479 E0.01665
G1 X29.503 Y28.987 E0.01665
G1 X29.281 Y29.402 E0.01477
G1 X28.948 Y29.224 F7200.000
;TYPE:External perimeter
G1 F1200.000
G1 X28.648 Y29.598 E0.01503
G1 X28.295 Y29.888 E0.01432
G1 X27.892 Y30.103 E0.01432
G1 X27.455 Y30.235 E0.01432
G1 X27.000 Y30.280 E0.01432
G1 X26.545 Y30.235 E0.01432
G1 X26.108 Y30.103 E0.01432
G1 X25.705 Y29.888 E0.01432
G1 X25.352 Y29.598 E0.01432
G1 X25.062 Y29.245 E0.01432
G1 X24.847 Y28.842 E0.01432
G1 X24.715 Y28.405 E0.01432
G1 X24.670 Y27.950 E0.01432
G1 X24.715 Y27.495 E0.01432
G1 X24.847 Y27.058 E0.01432
G1 X25.062 Y26.655 E0.01432
G1 X25.352 Y26.302 E0.01432
G1 X25.705 Y26.012 E0.01432
G1 X26.108 Y25.797 E0.01432
G1 X26.545 Y25.665 E0.01432
G1 X26.995 Y25.620 E0.01416
G1 X27.454 Y25.664 E0.01448
G1 X27.892 Y25.797 E0.01433
G1 X28.295 Y26.012 E0.01432
G1 X28.648 Y26.302 E0.01432
G1 X28.938 Y26.655 E0.01432
G1 X29.153 Y27.058 E0.01432
G1 X29.285 Y27.495 E0.01432
G1 X29.330 Y27.950 E0.01432
G1 X29.285 Y28.405 E0.01432
G1 X29.153 Y28.842 E0.01432
G1 X28.977 Y29.172 E0.01172
G1 X29.128 Y29.582 F7200.000
G1 E-4.55000 F1500.000
;WIPE_START
G1 F5760.000
G1 X28.648 Y29.598 E-0.13318
G1 X28.295 Y29.888 E-0.11301
G1 X27.892 Y30.103 E-0.11301
G1 X27.455 Y30.235 E-0.11301
G1 X27.000 Y30.280 E-0.11301
G1 X26.545 Y30.235 E-0.11301
G1 X26.108 Y30.103 E-0.11301
G1 X25.705 Y29.888 E-0.11301
G1 X25.352 Y29.598 E-0.11301
G1 X25.062 Y29.245 E-0.11301
G1 X24.847 Y28.842 E-0.11301
G1 X24.715 Y28.405 E-0.11301
G1 X24.670 Y27.950 E-0.11301
G1 X24.715 Y27.495 E-0.11301
G1 X24.847 Y27.058 E-0.11301
G1 X25.062 Y26.655 E-0.11301
G1 X25.124 Y26.580 E-0.02414
;WIPE_END
G1 E-0.09750 F1500.000
G1 X26.994 Y191.241 F7200.000
G1 E6.50000 F1500.000
;TYPE:Perimeter
G1 F1200.000
G1 X27.528 Y191.293 E0.01682
G1 X28.038 Y191.447 E0.01669
G1 X28.519 Y191.706 E0.01713
G1 X28.917 Y192.036 E0.01623
G1 X29.261 Y192.458 E0.01706
G1 X29.503 Y192.914 E0.01620
G1 X29.657 Y193.422 E0.01664
G1 X29.709 Y193.950 E0.01664
G1 X29.657 Y194.478 E0.01664
G1 X29.503 Y194.986 E0.01664
G1 X29.261 Y195.442 E0.01620
G1 X28.917 Y195.864 E0.01706
G1 X28.519 Y196.194 E0.01623
G1 X28.038 Y196.453 E0.01713
G1 X27.529 Y196.607 E0.01668
G1 X27.000 Y196.659 E0.01665
G1 X26.471 Y196.607 E0.01665
G1 X25.962 Y196.453 E0.01668
G1 X25.481 Y196.194 E0.01713
G1 X25.083 Y195.864 E0.01622
G1 X24.739 Y195.442 E0.01706
G1 X24.497 Y194.986 E0.01620
G1 X24.343 Y194.478 E0.01664
G1 X24.291 Y193.950 E0.01664
G1 X24.343 Y193.422 E0.01664
G1 X24.497 Y192.914 E0.01664
G1 X24.739 Y192.458 E0.01620
G1 X25.083 Y192.036 E0.01706
G1 X25.481 Y191.706 E0.01622
G1 X25.962 Y191.447 E0.01713
G1 X26.471 Y191.293 E0.01666
G1 X26.935 Y191.247 E0.01460
G1 X26.972 Y191.622 F7200.000
;TYPE:External perimeter
G1 F1200.000
G1 X27.455 Y191.664 E0.01519
G1 X27.892 Y191.797 E0.01434
G1 X28.307 Y192.020 E0.01477
G1 X28.648 Y192.303 E0.01390
G1 X28.946 Y192.667 E0.01474
G1 X29.153 Y193.058 E0.01388
G1 X29.285 Y193.496 E0.01433
G1 X29.330 Y193.950 E0.01432
G1 X29.285 Y194.404 E0.01432
G1 X29.153 Y194.842 E0.01433
G1 X28.946 Y195.233 E0.01388
G1 X28.648 Y195.597 E0.01474
G1 X28.307 Y195.880 E0.01390
G1 X27.892 Y196.103 E0.01477
G1 X27.455 Y196.236 E0.01433
G1 X27.000 Y196.280 E0.01432
G1 X26.545 Y196.236 E0.01432
G1 X26.108 Y196.103 E0.01433
G1 X25.693 Y195.880 E0.01477
G1 X25.352 Y195.597 E0.01390
G1 X25.054 Y195.233 E0.01474
G1 X24.847 Y194.842 E0.01388
G1 X24.715 Y194.404 E0.01433
G1 X24.670 Y193.950 E0.01432
G1 X24.715 Y193.496 E0.01432
G1 X24.847 Y193.058 E0.01433
G1 X25.054 Y192.667 E0.01388
G1 X25.352 Y192.303 E0.01474
G1 X25.693 Y192.020 E0.01390
G1 X26.108 Y191.797 E0.01477
G1 X26.545 Y191.665 E0.01433
G1 X26.912 Y191.628 E0.01157
G1 X27.169 Y191.274 F7200.000
G1 E-4.55000 F1500.000
;WIPE_START
G1 F5760.000
G1 X27.455 Y191.664 E-0.13444
G1 X27.892 Y191.797 E-0.11311
G1 X28.307 Y192.020 E-0.11655
G1 X28.648 Y192.303 E-0.10966
G1 X28.946 Y192.667 E-0.11628
G1 X29.153 Y193.058 E-0.10951
G1 X29.285 Y193.496 E-0.11303
G1 X29.330 Y193.950 E-0.11297
G1 X29.285 Y194.404 E-0.11297
G1 X29.153 Y194.842 E-0.11304
G1 X28.946 Y195.233 E-0.10951
G1 X28.648 Y195.597 E-0.11628
G1 X28.307 Y195.880 E-0.10966
G1 X27.892 Y196.103 E-0.11655
G1 X27.455 Y196.236 E-0.11308
G1 X27.000 Y196.280 E-0.11302
G1 X26.908 Y196.271 E-0.02282
;WIPE_END
G1 E-0.09750 F1500.000
G1 X205.291 Y193.950 F7200.000
G1 E6.50000 F1500.000
;TYPE:Perimeter
G1 F1200.000
G1 X205.343 Y193.422 E0.01665
G1 X205.497 Y192.914 E0.01663
G1 X205.737 Y192.461 E0.01608
G1 X206.040 Y192.080 E0.01525
G1 X206.442 Y191.733 E0.01668
G1 X206.954 Y191.450 E0.01834
G1 X207.471 Y191.293 E0.01693
G1 X207.994 Y191.241 E0.01649
G1 X208.528 Y191.293 E0.01682
G1 X209.036 Y191.447 E0.01664
G1 X209.489 Y191.687 E0.01608
G1 X209.872 Y191.991 E0.01533
G1 X210.242 Y192.428 E0.01796
G1 X210.503 Y192.912 E0.01724
G1 X210.657 Y193.422 E0.01669
G1 X210.709 Y193.950 E0.01665
G1 X210.657 Y194.478 E0.01665
G1 X210.503 Y194.986 E0.01663
G1 X210.263 Y195.440 E0.01612
G1 X209.947 Y195.833 E0.01581
G1 X209.521 Y196.192 E0.01746
G1 X209.043 Y196.451 E0.01704
G1 X208.529 Y196.607 E0.01686
G1 X208.000 Y196.659 E0.01666
G1 X207.472 Y196.607 E0.01665
G1 X206.964 Y196.453 E0.01663
G1 X206.510 Y196.213 E0.01612
G1 X206.117 Y195.897 E0.01581
G1 X205.757 Y195.471 E0.01747
G1 X205.497 Y194.988 E0.01721
G1 X205.343 Y194.478 E0.01669
G1 X205.297 Y194.010 E0.01477
G1 X205.672 Y193.973 F7200.000
;TYPE:External perimeter
G1 F1200.000
G1 X205.714 Y193.496 E0.01502
G1 X205.847 Y193.058 E0.01432
G1 X206.054 Y192.668 E0.01384
G1 X206.313 Y192.343 E0.01305
G1 X206.659 Y192.044 E0.01433
G1 X207.102 Y191.799 E0.01587
G1 X207.545 Y191.665 E0.01453
G1 X207.995 Y191.620 E0.01416
G1 X208.454 Y191.664 E0.01448
G1 X208.892 Y191.797 E0.01433
G1 X209.282 Y192.004 E0.01384
G1 X209.608 Y192.263 E0.01308
G1 X209.929 Y192.642 E0.01556
G1 X210.153 Y193.058 E0.01481
G1 X210.286 Y193.496 E0.01434
G1 X210.330 Y193.950 E0.01432
G1 X210.286 Y194.404 E0.01432
G1 X210.153 Y194.842 E0.01432
G1 X209.946 Y195.232 E0.01385
G1 X209.676 Y195.569 E0.01354
G1 X209.308 Y195.879 E0.01509
G1 X208.897 Y196.101 E0.01463
G1 X208.455 Y196.236 E0.01451
G1 X208.000 Y196.280 E0.01432
G1 X207.546 Y196.236 E0.01432
G1 X207.108 Y196.103 E0.01432
G1 X206.718 Y195.896 E0.01385
G1 X206.381 Y195.626 E0.01354
G1 X206.071 Y195.258 E0.01509
G1 X205.847 Y194.842 E0.01480
G1 X205.714 Y194.404 E0.01435
G1 X205.678 Y194.032 E0.01172
G1 X205.324 Y193.775 F7200.000
G1 E-4.55000 F1500.000
;WIPE_START
G1 F5760.000
G1 X205.714 Y193.496 E-0.13311
G1 X205.847 Y193.058 E-0.11302
G1 X206.054 Y192.668 E-0.10917
G1 X206.313 Y192.343 E-0.10297
G1 X206.659 Y192.044 E-0.11310
G1 X207.102 Y191.799 E-0.12521
G1 X207.545 Y191.665 E-0.11468
G1 X207.995 Y191.620 E-0.11171
G1 X208.454 Y191.664 E-0.11428
G1 X208.892 Y191.797 E-0.11305
G1 X209.282 Y192.004 E-0.10917
G1 X209.608 Y192.263 E-0.10321
G1 X209.929 Y192.642 E-0.12278
G1 X210.153 Y193.058 E-0.11684
G1 X210.286 Y193.496 E-0.11319
G1 X210.330 Y193.950 E-0.11298
G1 X210.321 Y194.047 E-0.02405
;WIPE_END
G1 E-0.09750 F1500.000
G1 X208.000 Y30.659 F7200.000
G1 E6.50000 F1500.000
;TYPE:Perimeter
G1 F1200.000
